icons/modern/up-down-arrow.svg

<svg width="32" height="32" viewBox="0 0 32 32" fill="none" xmlns="http://www.w3.org/2000/svg">
<g filter="url(#filter0_ii_18590_806)">
<rect x="2.0658" y="2.0625" width="27.875" height="27.875" rx="3.6" fill="url(#paint0_linear_18590_806)"/>
<rect x="2.0658" y="2.0625" width="27.875" height="27.875" rx="3.6" fill="url(#paint1_radial_18590_806)"/>
</g>
<g filter="url(#filter1_f_18590_806)">
<path d="M28.2533 4.5625V27.4375" stroke="url(#paint2_linear_18590_806)" stroke-width="1.5" stroke-linecap="round"/>
</g>
<g filter="url(#filter2_f_18590_806)">
<path d="M5.52966 3.875H27.3109" stroke="url(#paint3_linear_18590_806)" stroke-width="1.5" stroke-linecap="round"/>
</g>
<g filter="url(#filter3_f_18590_806)">
<path d="M15.3064 6.23133C15.6935 5.85876 16.3059 5.85876 16.6931 6.23133L22.0059 11.3435C22.6545 11.9677 22.2127 13.0641 21.3125 13.0641H18.2497C18.1117 13.0641 17.9997 13.1761 17.9997 13.3141V18.8141C17.9997 18.9522 18.1117 19.0641 18.2497 19.0641L21.3125 19.0641C22.2127 19.0641 22.6545 20.1605 22.0059 20.7847L16.6931 25.8969C16.3059 26.2695 15.6935 26.2695 15.3064 25.8969L9.99357 20.7847C9.3449 20.1605 9.78674 19.0641 10.6869 19.0641H13.7497C13.8878 19.0641 13.9997 18.9522 13.9997 18.8141V13.3141C13.9997 13.1761 13.8878 13.0641 13.7497 13.0641H10.6869C9.78674 13.0641 9.3449 11.9677 9.99357 11.3436L15.3064 6.23133Z" fill="#579FFF"/>
</g>
<g filter="url(#filter4_ii_18590_806)">
<path d="M15.3064 6.23133C15.6935 5.85876 16.3059 5.85876 16.6931 6.23133L22.0059 11.3435C22.6545 11.9677 22.2127 13.0641 21.3125 13.0641H18.2497C18.1117 13.0641 17.9997 13.1761 17.9997 13.3141V18.8141C17.9997 18.9522 18.1117 19.0641 18.2497 19.0641L21.3125 19.0641C22.2127 19.0641 22.6545 20.1605 22.0059 20.7847L16.6931 25.8969C16.3059 26.2695 15.6935 26.2695 15.3064 25.8969L9.99357 20.7847C9.3449 20.1605 9.78674 19.0641 10.6869 19.0641H13.7497C13.8878 19.0641 13.9997 18.9522 13.9997 18.8141V13.3141C13.9997 13.1761 13.8878 13.0641 13.7497 13.0641H10.6869C9.78674 13.0641 9.3449 11.9677 9.99357 11.3436L15.3064 6.23133Z" fill="#FCF2FF"/>
</g>
<defs>
<filter id="filter0_ii_18590_806" x="2.0658" y="1.0625" width="28.875" height="28.875" filterUnits="userSpaceOnUse" color-interpolation-filters="sRGB">
<feFlood flood-opacity="0" result="BackgroundImageFix"/>
<feBlend mode="normal" in="SourceGraphic" in2="BackgroundImageFix" result="shape"/>
<feColorMatrix in="SourceAlpha" type="matrix" values="0 0 0 0 0 0 0 0 0 0 0 0 0 0 0 0 0 0 127 0" result="hardAlpha"/>
<feOffset dx="1" dy="-1"/>
<feGaussianBlur stdDeviation="1.5"/>
<feComposite in2="hardAlpha" operator="arithmetic" k2="-1" k3="1"/>
<feColorMatrix type="matrix" values="0 0 0 0 0.188235 0 0 0 0 0.470588 0 0 0 0 0.843137 0 0 0 1 0"/>
<feBlend mode="normal" in2="shape" result="effect1_innerShadow_18590_806"/>
<feColorMatrix in="SourceAlpha" type="matrix" values="0 0 0 0 0 0 0 0 0 0 0 0 0 0 0 0 0 0 127 0" result="hardAlpha"/>
<feOffset dy="-1"/>
<feGaussianBlur stdDeviation="1.5"/>
<feComposite in2="hardAlpha" operator="arithmetic" k2="-1" k3="1"/>
<feColorMatrix type="matrix" values="0 0 0 0 0.27451 0 0 0 0 0.34902 0 0 0 0 0.8 0 0 0 1 0"/>
<feBlend mode="normal" in2="effect1_innerShadow_18590_806" result="effect2_innerShadow_18590_806"/>
</filter>
<filter id="filter1_f_18590_806" x="25.5033" y="1.8125" width="5.5" height="28.375" filterUnits="userSpaceOnUse" color-interpolation-filters="sRGB">
<feFlood flood-opacity="0" result="BackgroundImageFix"/>
<feBlend mode="normal" in="SourceGraphic" in2="BackgroundImageFix" result="shape"/>
<feGaussianBlur stdDeviation="1" result="effect1_foregroundBlur_18590_806"/>
</filter>
<filter id="filter2_f_18590_806" x="2.77966" y="1.125" width="27.2812" height="5.5" filterUnits="userSpaceOnUse" color-interpolation-filters="sRGB">
<feFlood flood-opacity="0" result="BackgroundImageFix"/>
<feBlend mode="normal" in="SourceGraphic" in2="BackgroundImageFix" result="shape"/>
<feGaussianBlur stdDeviation="1" result="effect1_foregroundBlur_18590_806"/>
</filter>
<filter id="filter3_f_18590_806" x="8.68494" y="4.9519" width="14.6295" height="22.2244" filterUnits="userSpaceOnUse" color-interpolation-filters="sRGB">
<feFlood flood-opacity="0" result="BackgroundImageFix"/>
<feBlend mode="normal" in="SourceGraphic" in2="BackgroundImageFix" result="shape"/>
<feGaussianBlur stdDeviation="0.5" result="effect1_foregroundBlur_18590_806"/>
</filter>
<filter id="filter4_ii_18590_806" x="9.08494" y="5.5519" width="13.6295" height="21.2244" filterUnits="userSpaceOnUse" color-interpolation-filters="sRGB">
<feFlood flood-opacity="0" result="BackgroundImageFix"/>
<feBlend mode="normal" in="SourceGraphic" in2="BackgroundImageFix" result="shape"/>
<feColorMatrix in="SourceAlpha" type="matrix" values="0 0 0 0 0 0 0 0 0 0 0 0 0 0 0 0 0 0 127 0" result="hardAlpha"/>
<feOffset dx="-0.6" dy="0.6"/>
<feGaussianBlur stdDeviation="0.5"/>
<feComposite in2="hardAlpha" operator="arithmetic" k2="-1" k3="1"/>
<feColorMatrix type="matrix" values="0 0 0 0 0.866667 0 0 0 0 0.819608 0 0 0 0 0.941176 0 0 0 1 0"/>
<feBlend mode="normal" in2="shape" result="effect1_innerShadow_18590_806"/>
<feColorMatrix in="SourceAlpha" type="matrix" values="0 0 0 0 0 0 0 0 0 0 0 0 0 0 0 0 0 0 127 0" result="hardAlpha"/>
<feOffset dx="0.4" dy="-0.4"/>
<feGaussianBlur stdDeviation="0.5"/>
<feComposite in2="hardAlpha" operator="arithmetic" k2="-1" k3="1"/>
<feColorMatrix type="matrix" values="0 0 0 0 1 0 0 0 0 0.988235 0 0 0 0 1 0 0 0 1 0"/>
<feBlend mode="normal" in2="effect1_innerShadow_18590_806" result="effect2_innerShadow_18590_806"/>
</filter>
<linearGradient id="paint0_linear_18590_806" x1="16.0033" y1="5.63701" x2="16.0033" y2="38.8897" gradientUnits="userSpaceOnUse">
<stop stop-color="#5CB7FF"/>
<stop offset="1" stop-color="#4878DD"/>
</linearGradient>
<radialGradient id="paint1_radial_18590_806" cx="0" cy="0" r="1" gradientUnits="userSpaceOnUse" gradientTransform="translate(27.722 4.15625) rotate(136.771) scale(2.14444 2.50466)">
<stop stop-color="#7BD7FF"/>
<stop offset="1" stop-color="#7BD7FF" stop-opacity="0"/>
</radialGradient>
<linearGradient id="paint2_linear_18590_806" x1="28.7533" y1="4.5625" x2="28.7533" y2="27.4375" gradientUnits="userSpaceOnUse">
<stop stop-color="#7FD9FF"/>
<stop offset="1" stop-color="#639DF4"/>
</linearGradient>
<linearGradient id="paint3_linear_18590_806" x1="28.4672" y1="4.12502" x2="2.93591" y2="4.12502" gradientUnits="userSpaceOnUse">
<stop stop-color="#7DD8FF"/>
<stop offset="1" stop-color="#5DB6FF"/>
</linearGradient>
</defs>
</svg>

<svg width="32" height="32" fill="none" xmlns="http://www.w3.org/2000/svg"><g filter="url(#a)"><rect x="2.066" y="2.063" width="27.875" height="27.875" rx="3.6" fill="url(#b)"/><rect x="2.066" y="2.063" width="27.875" height="27.875" rx="3.6" fill="url(#c)"/></g><g filter="url(#d)"><path d="M28.253 4.563v22.875" stroke="url(#e)" stroke-width="1.5" stroke-linecap="round"/></g><g filter="url(#f)"><path d="M5.53 3.875h21.78" stroke="url(#g)" stroke-width="1.5" stroke-linecap="round"/></g><g filter="url(#h)"><path d="M15.306 6.231a1 1 0 0 1 1.387 0l5.313 5.113c.648.624.207 1.72-.694 1.72H18.25a.25.25 0 0 0-.25.25v5.5c0 .138.112.25.25.25h3.063c.9 0 1.341 1.096.693 1.72l-5.313 5.113a1 1 0 0 1-1.387 0l-5.312-5.112c-.65-.625-.207-1.72.693-1.72h3.063a.25.25 0 0 0 .25-.25v-5.5a.25.25 0 0 0-.25-.25h-3.063c-.9 0-1.342-1.097-.693-1.721l5.312-5.113Z" fill="#579FFF"/></g><g filter="url(#i)"><path d="M15.306 6.231a1 1 0 0 1 1.387 0l5.313 5.113c.648.624.207 1.72-.694 1.72H18.25a.25.25 0 0 0-.25.25v5.5c0 .138.112.25.25.25h3.063c.9 0 1.341 1.096.693 1.72l-5.313 5.113a1 1 0 0 1-1.387 0l-5.312-5.112c-.65-.625-.207-1.72.693-1.72h3.063a.25.25 0 0 0 .25-.25v-5.5a.25.25 0 0 0-.25-.25h-3.063c-.9 0-1.342-1.097-.693-1.721l5.312-5.113Z" fill="#FCF2FF"/></g><defs><filter id="a" x="2.066" y="1.063" width="28.875" height="28.875" filterUnits="userSpaceOnUse" color-interpolation-filters="sRGB"><feFlood flood-opacity="0" result="BackgroundImageFix"/><feBlend in="SourceGraphic" in2="BackgroundImageFix" result="shape"/><feColorMatrix in="SourceAlpha" values="0 0 0 0 0 0 0 0 0 0 0 0 0 0 0 0 0 0 127 0" result="hardAlpha"/><feOffset dx="1" dy="-1"/><feGaussianBlur stdDeviation="1.5"/><feComposite in2="hardAlpha" operator="arithmetic" k2="-1" k3="1"/><feColorMatrix values="0 0 0 0 0.188235 0 0 0 0 0.470588 0 0 0 0 0.843137 0 0 0 1 0"/><feBlend in2="shape" result="effect1_innerShadow_18590_806"/><feColorMatrix in="SourceAlpha" values="0 0 0 0 0 0 0 0 0 0 0 0 0 0 0 0 0 0 127 0" result="hardAlpha"/><feOffset dy="-1"/><feGaussianBlur stdDeviation="1.5"/><feComposite in2="hardAlpha" operator="arithmetic" k2="-1" k3="1"/><feColorMatrix values="0 0 0 0 0.27451 0 0 0 0 0.34902 0 0 0 0 0.8 0 0 0 1 0"/><feBlend in2="effect1_innerShadow_18590_806" result="effect2_innerShadow_18590_806"/></filter><filter id="d" x="25.503" y="1.813" width="5.5" height="28.375" filterUnits="userSpaceOnUse" color-interpolation-filters="sRGB"><feFlood flood-opacity="0" result="BackgroundImageFix"/><feBlend in="SourceGraphic" in2="BackgroundImageFix" result="shape"/><feGaussianBlur stdDeviation="1" result="effect1_foregroundBlur_18590_806"/></filter><filter id="f" x="2.78" y="1.125" width="27.281" height="5.5" filterUnits="userSpaceOnUse" color-interpolation-filters="sRGB"><feFlood flood-opacity="0" result="BackgroundImageFix"/><feBlend in="SourceGraphic" in2="BackgroundImageFix" result="shape"/><feGaussianBlur stdDeviation="1" result="effect1_foregroundBlur_18590_806"/></filter><filter id="h" x="8.685" y="4.952" width="14.63" height="22.224" filterUnits="userSpaceOnUse" color-interpolation-filters="sRGB"><feFlood flood-opacity="0" result="BackgroundImageFix"/><feBlend in="SourceGraphic" in2="BackgroundImageFix" result="shape"/><feGaussianBlur stdDeviation=".5" result="effect1_foregroundBlur_18590_806"/></filter><filter id="i" x="9.085" y="5.552" width="13.63" height="21.224" filterUnits="userSpaceOnUse" color-interpolation-filters="sRGB"><feFlood flood-opacity="0" result="BackgroundImageFix"/><feBlend in="SourceGraphic" in2="BackgroundImageFix" result="shape"/><feColorMatrix in="SourceAlpha" values="0 0 0 0 0 0 0 0 0 0 0 0 0 0 0 0 0 0 127 0" result="hardAlpha"/><feOffset dx="-.6" dy=".6"/><feGaussianBlur stdDeviation=".5"/><feComposite in2="hardAlpha" operator="arithmetic" k2="-1" k3="1"/><feColorMatrix values="0 0 0 0 0.866667 0 0 0 0 0.819608 0 0 0 0 0.941176 0 0 0 1 0"/><feBlend in2="shape" result="effect1_innerShadow_18590_806"/><feColorMatrix in="SourceAlpha" values="0 0 0 0 0 0 0 0 0 0 0 0 0 0 0 0 0 0 127 0" result="hardAlpha"/><feOffset dx=".4" dy="-.4"/><feGaussianBlur stdDeviation=".5"/><feComposite in2="hardAlpha" operator="arithmetic" k2="-1" k3="1"/><feColorMatrix values="0 0 0 0 1 0 0 0 0 0.988235 0 0 0 0 1 0 0 0 1 0"/><feBlend in2="effect1_innerShadow_18590_806" result="effect2_innerShadow_18590_806"/></filter><linearGradient id="b" x1="16.003" y1="5.637" x2="16.003" y2="38.89" gradientUnits="userSpaceOnUse"><stop stop-color="#5CB7FF"/><stop offset="1" stop-color="#4878DD"/></linearGradient><linearGradient id="e" x1="28.753" y1="4.563" x2="28.753" y2="27.438" gradientUnits="userSpaceOnUse"><stop stop-color="#7FD9FF"/><stop offset="1" stop-color="#639DF4"/></linearGradient><linearGradient id="g" x1="28.467" y1="4.125" x2="2.936" y2="4.125" gradientUnits="userSpaceOnUse"><stop stop-color="#7DD8FF"/><stop offset="1" stop-color="#5DB6FF"/></linearGradient><radialGradient id="c" cx="0" cy="0" r="1" gradientUnits="userSpaceOnUse" gradientTransform="matrix(-1.56249 1.46876 -1.71548 -1.82495 27.722 4.156)"><stop stop-color="#7BD7FF"/><stop offset="1" stop-color="#7BD7FF" stop-opacity="0"/></radialGradient></defs></svg>
